app/public/icons/iconLogin.svg

<svg width="180" height="68" viewBox="0 0 180 68" fill="none" xmlns="http://www.w3.org/2000/svg">
<g filter="url(#filter0_d_220_4515)">
<rect x="4" y="0.5" width="172" height="59" rx="29.5" fill="white"/>
<rect x="4.5" y="1" width="171" height="58" rx="29" stroke="black" stroke-opacity="0.54"/>
<path d="M97.0121 35.822V38H86.2981V22.38H96.8141V24.558H88.7621V29.002H95.7361V31.048H88.7621V35.822H97.0121ZM109.478 38H107.058V31.554C107.058 30.4833 106.882 29.6987 106.53 29.2C106.193 28.7013 105.687 28.452 105.012 28.452C104.543 28.452 104.073 28.5693 103.604 28.804C103.149 29.0387 102.739 29.3613 102.372 29.772C102.005 30.168 101.741 30.63 101.58 31.158V38H99.16V26.494H101.36V28.804C101.653 28.2907 102.035 27.8507 102.504 27.484C102.988 27.1027 103.531 26.8093 104.132 26.604C104.733 26.3987 105.371 26.296 106.046 26.296C106.735 26.296 107.3 26.4207 107.74 26.67C108.195 26.9193 108.547 27.264 108.796 27.704C109.06 28.1293 109.236 28.628 109.324 29.2C109.427 29.7573 109.478 30.3513 109.478 30.982V38ZM118.603 37.406C118.398 37.5087 118.141 37.6187 117.833 37.736C117.525 37.8533 117.173 37.956 116.777 38.044C116.396 38.132 116 38.176 115.589 38.176C115.09 38.176 114.628 38.088 114.203 37.912C113.778 37.736 113.433 37.4573 113.169 37.076C112.92 36.68 112.795 36.174 112.795 35.558V28.364H111.277V26.494H112.795V22.71H115.215V26.494H117.723V28.364H115.215V34.788C115.244 35.184 115.369 35.4773 115.589 35.668C115.824 35.8587 116.11 35.954 116.447 35.954C116.784 35.954 117.107 35.8953 117.415 35.778C117.723 35.6607 117.95 35.5653 118.097 35.492L118.603 37.406ZM126.747 28.584C125.808 28.5987 124.972 28.8113 124.239 29.222C123.52 29.6327 123.007 30.212 122.699 30.96V38H120.279V26.494H122.523V29.068C122.919 28.276 123.44 27.6453 124.085 27.176C124.73 26.692 125.412 26.428 126.131 26.384C126.278 26.384 126.395 26.384 126.483 26.384C126.586 26.384 126.674 26.3913 126.747 26.406V28.584ZM127.65 34.634C127.65 33.9007 127.856 33.2627 128.266 32.72C128.692 32.1627 129.271 31.7373 130.004 31.444C130.738 31.136 131.588 30.982 132.556 30.982C133.07 30.982 133.59 31.0187 134.118 31.092C134.661 31.1653 135.138 31.2827 135.548 31.444V30.718C135.548 29.9113 135.306 29.2807 134.822 28.826C134.338 28.3713 133.642 28.144 132.732 28.144C132.087 28.144 131.478 28.2613 130.906 28.496C130.334 28.716 129.726 29.0313 129.08 29.442L128.266 27.814C129.029 27.3007 129.792 26.9193 130.554 26.67C131.332 26.4207 132.146 26.296 132.996 26.296C134.536 26.296 135.746 26.7067 136.626 27.528C137.521 28.3347 137.968 29.486 137.968 30.982V35.272C137.968 35.5507 138.012 35.7487 138.1 35.866C138.203 35.9833 138.372 36.0493 138.606 36.064V38C138.386 38.044 138.188 38.0733 138.012 38.088C137.836 38.1027 137.69 38.11 137.572 38.11C137.059 38.11 136.67 37.9853 136.406 37.736C136.142 37.4867 135.988 37.1933 135.944 36.856L135.878 36.196C135.38 36.8413 134.742 37.34 133.964 37.692C133.187 38.044 132.402 38.22 131.61 38.22C130.848 38.22 130.166 38.066 129.564 37.758C128.963 37.4353 128.494 37.0027 128.156 36.46C127.819 35.9173 127.65 35.3087 127.65 34.634ZM134.976 35.338C135.152 35.1473 135.292 34.9567 135.394 34.766C135.497 34.5753 135.548 34.4067 135.548 34.26V32.94C135.138 32.7787 134.705 32.6613 134.25 32.588C133.796 32.5 133.348 32.456 132.908 32.456C132.028 32.456 131.31 32.632 130.752 32.984C130.21 33.336 129.938 33.82 129.938 34.436C129.938 34.7733 130.026 35.096 130.202 35.404C130.393 35.712 130.657 35.9613 130.994 36.152C131.346 36.3427 131.779 36.438 132.292 36.438C132.82 36.438 133.326 36.3353 133.81 36.13C134.294 35.9247 134.683 35.6607 134.976 35.338ZM147.372 28.584C146.433 28.5987 145.597 28.8113 144.864 29.222C144.145 29.6327 143.632 30.212 143.324 30.96V38H140.904V26.494H143.148V29.068C143.544 28.276 144.065 27.6453 144.71 27.176C145.355 26.692 146.037 26.428 146.756 26.384C146.903 26.384 147.02 26.384 147.108 26.384C147.211 26.384 147.299 26.3913 147.372 26.406V28.584Z" fill="#155BCB"/>
<path d="M45.6602 29.75C42.6094 29.75 40.1602 27.3008 40.1602 24.25C40.1602 21.2422 42.6094 18.75 45.6602 18.75C48.668 18.75 51.1602 21.2422 51.1602 24.25C51.1602 27.3008 48.668 29.75 45.6602 29.75ZM49.4844 31.125C52.6641 31.125 55.2852 33.7461 55.2852 36.9258V38.6875C55.2852 39.8477 54.3398 40.75 53.2227 40.75H38.0977C36.9375 40.75 36.0352 39.8477 36.0352 38.6875V36.9258C36.0352 33.7461 38.6133 31.125 41.793 31.125H42.5234C43.4688 31.5977 44.543 31.8125 45.6602 31.8125C46.7773 31.8125 47.8086 31.5977 48.7539 31.125H49.4844Z" fill="#155BCB"/>
</g>
<defs>
<filter id="filter0_d_220_4515" x="0" y="0.5" width="180" height="67" filterUnits="userSpaceOnUse" color-interpolation-filters="sRGB">
<feFlood flood-opacity="0" result="BackgroundImageFix"/>
<feColorMatrix in="SourceAlpha" type="matrix" values="0 0 0 0 0 0 0 0 0 0 0 0 0 0 0 0 0 0 127 0" result="hardAlpha"/>
<feOffset dy="4"/>
<feGaussianBlur stdDeviation="2"/>
<feComposite in2="hardAlpha" operator="out"/>
<feColorMatrix type="matrix" values="0 0 0 0 0 0 0 0 0 0 0 0 0 0 0 0 0 0 0.25 0"/>
<feBlend mode="normal" in2="BackgroundImageFix" result="effect1_dropShadow_220_4515"/>
<feBlend mode="normal" in="SourceGraphic" in2="effect1_dropShadow_220_4515" result="shape"/>
</filter>
</defs>
</svg>

<svg xmlns="http://www.w3.org/2000/svg" width="180" height="68" fill="none"><g filter="url(#a)"><rect width="172" height="59" x="4" y=".5" fill="#fff" rx="29.5"/><rect width="171" height="58" x="4.5" y="1" stroke="#000" stroke-opacity=".54" rx="29"/><path fill="#155BCB" d="M97.012 35.822V38H86.298V22.38h10.516v2.178h-8.052v4.444h6.974v2.046h-6.974v4.774zM109.478 38h-2.42v-6.446q0-1.605-.528-2.354-.506-.748-1.518-.748-.704 0-1.408.352a4.3 4.3 0 0 0-1.232.968 3.5 3.5 0 0 0-.792 1.386V38h-2.42V26.494h2.2v2.31a4.5 4.5 0 0 1 1.144-1.32 5.5 5.5 0 0 1 1.628-.88 5.9 5.9 0 0 1 1.914-.308q1.034 0 1.694.374.682.374 1.056 1.034.396.638.528 1.496.154.835.154 1.782zm9.125-.594a9 9 0 0 1-.77.33q-.462.176-1.056.308a5.3 5.3 0 0 1-1.188.132q-.749 0-1.386-.264a2.3 2.3 0 0 1-1.034-.836q-.374-.594-.374-1.518v-7.194h-1.518v-1.87h1.518V22.71h2.42v3.784h2.508v1.87h-2.508v6.424q.044.594.374.88.352.285.858.286.506 0 .968-.176t.682-.286zm8.144-8.822q-1.408.022-2.508.638-1.078.615-1.54 1.738V38h-2.42V26.494h2.244v2.574q.594-1.188 1.562-1.892.967-.726 2.046-.792h.352q.154 0 .264.022zm.903 6.05q0-1.1.616-1.914.639-.836 1.738-1.276 1.1-.462 2.552-.462.77 0 1.562.11a6.2 6.2 0 0 1 1.43.352v-.726q0-1.21-.726-1.892t-2.09-.682q-.968 0-1.826.352-.858.33-1.826.946l-.814-1.628a9.3 9.3 0 0 1 2.288-1.144 8 8 0 0 1 2.442-.374q2.31 0 3.63 1.232 1.342 1.21 1.342 3.454v4.29q0 .419.132.594.155.175.506.198V38a5.3 5.3 0 0 1-1.034.11q-.77 0-1.166-.374a1.44 1.44 0 0 1-.462-.88l-.066-.66a4.95 4.95 0 0 1-1.914 1.496 5.7 5.7 0 0 1-2.354.528q-1.143 0-2.046-.462a3.66 3.66 0 0 1-1.408-1.298 3.4 3.4 0 0 1-.506-1.826m7.326.704q.264-.285.418-.572.154-.286.154-.506v-1.32a6.3 6.3 0 0 0-1.298-.352 7 7 0 0 0-1.342-.132q-1.32 0-2.156.528-.813.528-.814 1.452 0 .506.264.968.286.462.792.748.528.285 1.298.286.792 0 1.518-.308t1.166-.792m12.396-6.754q-1.409.022-2.508.638-1.078.615-1.54 1.738V38h-2.42V26.494h2.244v2.574q.594-1.188 1.562-1.892.968-.726 2.046-.792h.352q.155 0 .264.022zM45.66 29.75c-3.05 0-5.5-2.45-5.5-5.5 0-3.008 2.45-5.5 5.5-5.5 3.008 0 5.5 2.492 5.5 5.5 0 3.05-2.492 5.5-5.5 5.5m3.824 1.375c3.18 0 5.801 2.621 5.801 5.8v1.763c0 1.16-.945 2.062-2.062 2.062H38.098a2.036 2.036 0 0 1-2.063-2.062v-1.762c0-3.18 2.578-5.801 5.758-5.801h.73c.946.473 2.02.688 3.137.688s2.149-.215 3.094-.688z"/></g><defs><filter id="a" width="180" height="67" x="0" y=".5" color-interpolation-filters="sRGB" filterUnits="userSpaceOnUse"><feFlood flood-opacity="0" result="BackgroundImageFix"/><feColorMatrix in="SourceAlpha" result="hardAlpha" values="0 0 0 0 0 0 0 0 0 0 0 0 0 0 0 0 0 0 127 0"/><feOffset dy="4"/><feGaussianBlur stdDeviation="2"/><feComposite in2="hardAlpha" operator="out"/><feColorMatrix values="0 0 0 0 0 0 0 0 0 0 0 0 0 0 0 0 0 0 0.25 0"/><feBlend in2="BackgroundImageFix" result="effect1_dropShadow_220_4515"/><feBlend in="SourceGraphic" in2="effect1_dropShadow_220_4515" result="shape"/></filter></defs></svg>
